X: 1
T: String Quartet in B\b Major opus 71 no 1 mvt 1
C: Franz Joseph Haydn
%%abc-version 2.0
%%abcx-abcm2ps-target-version 5.9.1 (29 Sep 2008)
%%abc-creator hum2abc beta
%%abcx-conversion-date 2021/02/14 14:38:37
%%abc-copyright Copyright (c) 1994, 2000 Center for Computer Assisted Research in the Humanities
%%abc-edited-by Frances Bennion
%%abcx-initial-encoding-date 1997/04/15
%%gracespace 0 6 6
%%humdrum-veritas 3451945945
%%humdrum-veritas-data 1833406515
%%linebreak <none>
%%barnumbers 0
L: 1/8
M: 4/4
N: Derived from op71n1-01.krn
Q: "Allegro"
%%staves [1 2 3 4]
V: 1
V: 2
V: 3 clef=alto
V: 4 clef=bass
K: Bb
[V:1][fBD]z [eG]z [dF]z [EAC]z [I:setbarnb2] |
[V:2][dF]z [cG]z [BD]z [EAC]z |
[V:3][FB,]z [GB,]z [FB,]z [CE]z |
[V:4]B,,z E,z F,z F,,z |
[V:1][D2B,2B2] z6 |
[V:2][B,2D2B2] z6 |
[V:3][B,2D2] z6 |
[V:4][B,,2D,2] z6 |
[V:1]f4 d2 B2 |
[V:2]B,z Dz Fz3 |
[V:3]D,z B,z Dz3 |
[V:4]B,,2 z6 |
[V:1]b3 d'/b/ f2 zd |
[V:2]Fz Dz Fz2 F |
[V:3]D,z B,z Dz3 |
[V:4]B,,2 z6 |
[V:1]c2 =B2 c2 A2 |
[V:2]E2 D2 E2 C2 |
[V:3]z4 A,2 E2 |
[V:4]F,,8 |
[V:1]Bz dz f2 zd |
[V:2]D2 z4 zF |
[V:3]D2 z6 |
[V:4]B,,2 z6 |
[V:1]c2 =B2 c2 A2 |
[V:2]E2 D2 E2 C2 |
[V:3]A,6 E,2 |
[V:4]F,,8 |
[V:1][B2D2] zd/B/ A/B/A/B/ A/B/c/A/ |
[V:2]B,[FD] [FD][FD] [EC][EC] [CE][EC] |
[V:3]D,/F,/B,/D/ FF FF FF |
[V:4]B,,B,, B,,B,, B,,B,, B,,B,, |
[V:1]B2 zf/d'/ c'/=b/c'/b/ c'/e'/c'/a/ |
[V:2]D[DB] [DB][BD] [AE][AE] [AE][Ec] |
[V:3]D,/F,/B,/D/ FF FF FF |
[V:4]B,,B, B,,B,, B,,B,, B,,B,, |
[V:1]b2 zd/B/ A/B/A/B/ A/B/c/A/ |
[V:2][DB]F FF _G4 |
[V:3]FD DD E4 |
[V:4]B,,B, B,B, B,4 |
[V:1]B2 zf/d'/ c'/=b/c'/b/ c'/e'/c'/a/ |
[V:2]FD FF _G4 |
[V:3]DB, DD E4 |
[V:4]B,,B, B,B, B,4 |
[V:1]bb2 d'/b/ aa2 c'/a/ |
[V:2]FF FF FF FF |
[V:3]DD DD EE EE |
[V:4]B,,B, B,B, CC CC |
[V:1]bb2 d'/b/ aa2 c'/a/ |
[V:2]FF2 F EE2 E |
[V:3]DD2 D CC2 C |
[V:4]B,B, B,B, F,F, F,F, |
[V:1]bd'2 ^f gb2 d |
[V:2]DB,2 B,2 B,2 B,- |
[V:3]B,d2 ^F GB2 D |
[V:4]D,2 D,,2 E,,2 F,,2 |
[V:1]cb2 c _db2 B |
[V:2]B,B,2 B,2 B,2 _D |
[V:3]CB2 C _DB2 B, |
[V:4]G,,2 F,,2 =E,,2 =E,2 |
[V:1]Af ff ff ff |
[V:2]C2 z4 zd |
[V:3]A,2 z4 z=B |
[V:4]F,2 z6 |
[V:1]f8- |
[V:2]e2 d2 e2 z=B |
[V:3]c2 =B2 c2 zD |
[V:4]z8 |
[V:1]f7 _a |
[V:2]c2 =B2 c4- |
[V:3]E2 D2 E4- |
[V:4]z7 F, |
[V:1]_g2 f2 g3 f |
[V:2]c8- |
[V:3]E8- |
[V:4]A,2 B,2 A,3 B, |
[V:1]_g8 |
[V:2]c8 |
[V:3]E8 |
[V:4]A,8 |
[V:1]f4 d2 B2 |
[V:2]Dz Dz Fz3 |
[V:3]D,z B,z Dz3 |
[V:4]B,,2 z6 |
[V:1]b3 d'/b/ f2 zd |
[V:2]Fz Dz Fz2 F |
[V:3]D,z B,z Dz3 |
[V:4]B,,2 z6 |
[V:1]c2 =B2 c2 A2 |
[V:2]E2 D2 E2 C2 |
[V:3]A,6 E2 |
[V:4]F,,8 |
[V:1]Bz dz f2 zd |
[V:2]D2 z4 zF |
[V:3]D2 z6 |
[V:4]B,,2 z6 |
[V:1]c2 =B2 c2 A2 |
[V:2]E2 D2 E2 C2 |
[V:3]A,6 E2 |
[V:4]F,6 ^F,2 |
[V:1]B6 _A2 |
[V:2]B,2 A,2 B,2 F2 |
[V:3]D2 ^C2 D2 =B,2 |
[V:4]G,6 D,2 |
[V:1]_A4 G2 G2 |
[V:2]F4 E2 D2- |
[V:3]C2 =B,2 C2 _B,2- |
[V:4]E,6 =E,2 |
[V:1]F2 =E2 F2 G2 |
[V:2]D2 C4 C2 |
[V:3]B,2 B,4 B,2 |
[V:4]F,2 G,2 F,2 =E,2 |
[V:1]F6 A,2 |
[V:2]C8 |
[V:3]B,4 A,2 E,2 |
[V:4]F,4 F,,4 |
[V:1]B,4 D2 F2 |
[V:2]B,/D/F/D/ F/D/F/D/ B,/D/F/D/ F/D/F/D/ |
[V:3]D,/B,/D/B,/ D/B,/D/B,/ D,/B,/D/B,/ D/B,/D/B,/ |
[V:4]B,,4 z4 |
[V:1]B2 d2 f2 b2 |
[V:2]D/F/B/F/ B/F/B/F/ D/F/B/F/ B/F/B/F/ |
[V:3]F/D/B,/D/ B,/D/B,/D/ F,/D/B,/D/ B,/D/B,/D/ |
[V:4]z8 |
[V:1]=e'8- |
[V:2]G/B/c/B/ c/B/c/B/ G/B/c/B/ c/B/c/B/ |
[V:3]B,/G/B/G/ B/G/B/G/ C/G/B/G/ B/G/B/G/ |
[V:4]C,,4 =E,,2 G,,2 |
[V:1]e'=e'2 e'2 e'2 c' |
[V:2]G/B/c/B/ G/B/c/B/ G/B/c/B/ G/B/c/B/ |
[V:3]=E/G/B/G/ B/G/B/G/ C/G/B/G/ B/G/B/G/ |
[V:4]C,2 =E,2 G,2 C2 |
[V:1]f'8 |
[V:2]F/A/c/A/ c/A/c/A/ F/A/c/A/ c/A/c/A/ |
[V:3]A,/F/A/F/ A/F/A/F/ A,/F/A/F/ A/F/A/F/ |
[V:4]F,,A,, C,=E, F,A, CF |
[V:1]=b8 |
[V:2]F/G/=B/G/ F/G/F/G/ F/G/B/G/ F/G/F/G/ |
[V:3]D/F/G/F/ D/F/D/F/ D/F/G/F/ D/F/D/F/ |
[V:4]D,,F,, =B,,D, F,=B, DD, |
[V:1]c'4 f'3 =b |
[V:2]=E/G/c/G/ E/G/E/G/ F/G/=B/G/ F/G/F/G/ |
[V:3]C/=E/G/E/ C/E/C/E/ D/F/G/F/ D/F/D/F/ |
[V:4]C,,C, CC, C,,C, CC, |
[V:1]c'c/d/ =e/f/g/e/ cC/D/ =E/F/G/E/ |
[V:2]=EC/D/ E/F/G/E/ CC/D/ E/F/G/E/ |
[V:3]=E2 z3 C/D/ E/F/G/E/ |
[V:4]C,,2 z3 C,/D,/ =E,/F,/G,/E,/ |
[V:1]C2 c'2 C2 z2 |
[V:2]C2 c2 C2 z2 |
[V:3]C2 c2 C,2 z2 |
[V:4]C,2 C2 C,,2 z2 |
[V:1]c'4 a2 f2 |
[V:2]c4 A2 F2 |
[V:3]zG, A,B, CD =EF |
[V:4]z=E, F,G, A,B, CD |
[V:1]d'4 b2 g2 |
[V:2]d4 B2 G2 |
[V:3]zA, B,C D=E FG |
[V:4]z^F, G,A, B,C D=E |
[V:1]a^c d=e fg ab |
[V:2]F4 D2 B,2 |
[V:3]A4 F2 D2 |
[V:4]F2 z6 |
[V:1]z^d =ef ga bc' |
[V:2]G4 =E2 C2 |
[V:3]B4 G2 =E2 |
[V:4]z8 |
[V:1]a4 f2 d2 |
[V:2]z2 A4 F2 |
[V:3]F=E F^C D2 z2 |
[V:4]z^C, D,=E, F,G, A,B, |
[V:1]d'4 b2 g2 |
[V:2]D2 d4 B2 |
[V:3]Ac B^F G2 z2 |
[V:4]z^F,, G,,A,, B,,A,, B,,=B,, |
[V:1]f=e ag fe dc |
[V:2]G8 |
[V:3]z2 =E,2 G,2 =B,2 |
[V:4]C,8 |
[V:1]c4 =e2 g2 |
[V:2]z=E AG FE DC |
[V:3]C4 G,2 =E,2 |
[V:4]B,,8 |
[V:1]c4 f2 a2 |
[V:2]zG BA GF =EF |
[V:3]C4 A,2 F,2 |
[V:4]A,,8 |
[V:1]c8- |
[V:2]C4 =E2 G2 |
[V:3]C,=E AG FE DC |
[V:4]B,,8 |
[V:1](3:2:2c4- c/BA G|
[V:2]F2 z6 |
[V:3]z=E GF ED CB, |
[V:4]A,,6 B,,2 |
[V:1]F6 G2 |
[V:2]z6 =E2 |
[V:3]A,6 B,2 |
[V:4]C,^C, =E,D, =C,4 |
[V:1]F/A/c/f/ =e/g/e/c/ f/c'/a/f/ e/g/e/c/ |
[V:2]Fz [BG]z [FA]z [BG]z |
[V:3]A,z Cz Cz =Ez |
[V:4]F,z F,z F,z F,z |
[V:1]F/A/c/f/ =e/g/e/c/ f/c'/a/f/ e/g/e/c/ |
[V:2][FA]z [BG]z [FA]z [BG]z |
[V:3]Fz Cz Cz =Ez |
[V:4]F,,z F,z F,z F,z |
[V:1]f2 a2 c'2 f'2 |
[V:2]A/c/f/c/ A/c/A/c/ A/c/f/c/ A/c/A/c/ |
[V:3]F/A/c/A/ c/A/c/A/ F/A/c/A/ c/A/c/A/ |
[V:4]F,8 |
[V:1]a'4 =b4 |
[V:2]=B/d/f/d/ B/d/B/d/ B/d/f/d/ B/d/B/d/ |
[V:3]D/F/=B/F/ B/F/B/F/ D/F/B/F/ B/F/B/F/ |
[V:4]D,8 |
[V:1]c'2 z6 |
[V:2]c2 z3 A/B/ c/d/=e/f/ |
[V:3]CA,/B,/ C/D/=E/F/ C2 z2 |
[V:4][A,2C,2F,2] z2 [C,2A,2F,2] z2 |
[V:1]za/b/ c'/d'/=e'/f'/ c'a fc |
[V:2]c2 z6 |
[V:3]z8 |
[V:4][C,2A,2F,2] z6 |
[V:1]BG =EC B,G, BE |
[V:2][=E8G,8] |
[V:3]B,8 |
[V:4]C,8 |
[V:1]zF zG zA z/G/^F/G/ |
[V:2]Fz Gz Az =Ez |
[V:3]A,z =Ez Fz Cz |
[V:4]F,z C,z F,,z3 |
[V:1]z/A/^G/A/ z/B/A/B/ c/d/=e/f/ e/f/e/f/ |
[V:2]Fz Gz Az3 |
[V:3]F,2 z6 |
[V:4]z8 |
[V:1]d4 =e4 |
[V:2]F4 G4 |
[V:3]F,/G,/A,/B,/ A,/B,/A,/B,/ C,2 C2 |
[V:4]z4 G,,/A,,/B,,/C,/ B,,/C,/B,,/C,/ |
[V:1]f/c/=B/c/ g/c/B/c/ a/c/B/c/ b/g/f/=e/ |
[V:2]cz cz cz cz |
[V:3]F,z Bz Az =Ez |
[V:4]A,,z =E,z F,z G,z |
[V:1]c'a c'a c'2 z2 |
[V:2]cf af a2 z2 |
[V:3]F2 z2 >A2 cA |
[V:4]A,2 z2 >F2 AF |
[V:1]zc' f'c' f'2 z2 |
[V:2]za fa f2 z2 |
[V:3]c2 z6 |
[V:4]A2 z6 |
[V:1]d'8 |
[V:2]f8 |
[V:3]_A8 |
[V:4]=B,8 |
[V:1]g8 |
[V:2]=e8 |
[V:3]B8 |
[V:4]C8 |
[V:1]f2 z4 b3/=e/ |
[V:2]fa/g/ f/=e/d/c/ B/A/G/F/ =E/G/A/B/ |
[V:3]AF/=E/ D/C/B,/A,/ G,/F,/=E,/D,/ C,/E,/F,/G,/ |
[V:4]F,2 z4 C,2 |
[V:1]fa/g/ f/=e/d/c/ B/A/G/F/ =E/G/A/B/ |
[V:2]A2 z4 b3/=e/ |
[V:3]F,2 z4 G2 |
[V:4]F,,F,/=E,/ D,/C,/B,,/A,,/ G,,/F,,/=E,,/D,,/ C,,C, |
[V:1]Az [cg=E]z [aFc]z =e'z |
[V:2]fz [Bg]z [fA]z [b=Ec]z |
[V:3]Az cz Az [GC]z |
[V:4]F,,z C,z F,z Cz |
[V:1]f'2 z6 |
[V:2][a2c2F2] z6 |
[V:3][A2C2F2] z6 |
[V:4]F,2 z6 |
[V:1]z8 |
[V:2]c4 A2 F2 |
[V:3]z8 |
[V:4]z8 |
[V:1]z8 |
[V:2]f3 a/f/ c2 z2 |
[V:3]zA dc BA GF |
[V:4]E8 |
[V:1]f4 d2 B2 |
[V:2]zB ed cB AB |
[V:3]B8 |
[V:4]D8 |
[V:1]b3 d'/b/ f2 zd |
[V:2]F8- |
[V:3]zD GF ED CB, |
[V:4]_A,8 |
[V:1]c2 =B2 c2 d2 |
[V:2]FF _AG FE D=B |
[V:3]zD FE DC =B,G, |
[V:4]G,8 |
[V:1]e2 z6 |
[V:2]c2 G4 E2 |
[V:3]G4 E2 C2 |
[V:4]z=B,, C,D, E,F, G,A, |
[V:1]z8 |
[V:2]FD EF ED CB, |
[V:3]_A4 F2 D2 |
[V:4]zB,, C,D, E,F, G,_A, |
[V:1]b4 g2 e2 |
[V:2]Ez Gz Bz3 |
[V:3]Ez Ez Gz3 |
[V:4]G,2 z6 |
[V:1]e'3 g'/e'/ b2 zg |
[V:2]Ez Gz Bz2 B |
[V:3]G,z Ez Gz3 |
[V:4]E,,2 z6 |
[V:1]f2 =e2 f2 d2 |
[V:2]_A2 G2 A2 F2 |
[V:3]z2 _D2 =D2 _A2 |
[V:4]B,,8 |
[V:1]ez gz b2 zg |
[V:2]G2 z6 |
[V:3]G2 z4 zB |
[V:4]E,2 z6 |
[V:1]f2 =e2 f2 d2 |
[V:2]z6 _c2 |
[V:3]_A2 G2 A4 |
[V:4]B,,8 |
[V:1]e2 d2 e2 _d2 |
[V:2]B6 _A2 |
[V:3]G6 F2 |
[V:4]E,2 z6 |
[V:1]c2 =B2 c2 b2 |
[V:2]G8 |
[V:3]=E8 |
[V:4]z8 |
[V:1]_a2 zc'/f/ =e/f/e/f/ e/f/g/e/ |
[V:2]_AC CC _DD DD |
[V:3]F_A, A,A, B,B, B,B, |
[V:4]F,,F, F,F, F,F, F,F, |
[V:1]f2 z2 _d'4 |
[V:2]C2 zc/f/ =e/f/e/f/ e/f/g/e/ |
[V:3]_A,_A AA BB BB |
[V:4]F,2 z6 |
[V:1]c'2 zc'/f/ =e/f/e/f/ e/f/g/e/ |
[V:2]fC CC _DD DD |
[V:3]_A_A, A,A, B,B, B,B, |
[V:4]F,,F, F,F, F,F, F,F, |
[V:1]f/c'/_a/f/ =e/f/g/e/ f/c'/a/f/ e/f/g/e/ |
[V:2]C2 _D2 C2 D2 |
[V:3]_A,2 B,2 A,2 B,2 |
[V:4]F,8 |
[V:1]f/c/f/g/ _a/b/a/g/ f/g/f/e/ d/e/d/c/ |
[V:2]C4 D4 |
[V:3]_A,8 |
[V:4]F,8 |
[V:1]=B/c/d/e/ f/e/d/c/ B/_A/G/A/ G/F/E/D/ |
[V:2]D8 |
[V:3]=B,8 |
[V:4]G,8 |
[V:1]C2 zg/c/ =B/c/B/c/ B/c/d/B/ |
[V:2]EG GG _AA AA |
[V:3]CE EE FF FF |
[V:4]CC CC CC CC |
[V:1]c2 zg/e'/ d'/c'/=b/c'/ b/c'/d'/b/ |
[V:2]GG GG _AA AA |
[V:3]EE EE FF FF |
[V:4]C,C CC CC CC |
[V:1]c'2 zg/c/ =B/c/B/c/ B/c/d/B/ |
[V:2]GG GG _A4 |
[V:3]EE EE F4 |
[V:4]C2 z6 |
[V:1]c/g/e/c/ =B/c/d/B/ c/g/e/c/ B/c/d/B/ |
[V:2]G2 _A2 G2 A2 |
[V:3]E2 F2 E2 F2 |
[V:4]z8 |
[V:1]c/d/e/f/ e/d/c/B/ A/B/c/d/ c/B/A/G/ |
[V:2]G4 A4 |
[V:3]E4 C/D/E/F/ E/D/C/B,/ |
[V:4]C,8 |
[V:1]^F/G/A/B/ A/G/F/E/ D/E/D/E/ D/C/B,/A,/ |
[V:2]C4 A,4 |
[V:3]A,/B,/C/D/ C/B,/A,/G,/ ^F,4 |
[V:4]D,8 |
[V:1]G,2 z6 |
[V:2]B,z Az Bz cz |
[V:3]G,z Dz Dz Dz |
[V:4]G,,/B,,/D,/G,/ ^F,/A,/F,/D,/ G,/D/B,/G,/ F,/A,/F,/D,/ |
[V:1]z2 az bz c'z |
[V:2]Bz dz dz dz |
[V:3]G,/B,/D/G/ ^F/A/F/D/ G/d/B/G/ F/A/F/D/ |
[V:4]G,2 z6 |
[V:1]b/c'/d'/c'/ b/a/g/f/ e/d/c/B/ A/G/^f/g/ |
[V:2]dz Dz Gz Bz |
[V:3]G2 z6 |
[V:4]G,,z B,,z D,z G,z |
[V:1]^fz az c'z fz |
[V:2]A/c/e/d/ c/B/A/G/ ^F/E/D/E/ D/C/B,/A,/ |
[V:3]Dz ^Fz Az cz |
[V:4]D,2 z6 |
[V:1]g/b/d'/c'/ b/a/g/f/ e/d/c/B/ A/G/^F/G/ |
[V:2]B,z Dz Gz Bz |
[V:3][BD]z7 |
[V:4]G,,z B,,z D,z G,z |
[V:1]_Az cz ez _az |
[V:2]_A/c/e/_d/ c/B/A/G/ F/E/_D/C/ B,/_A,/G,/A,/ |
[V:3][_A,8E8] |
[V:4]C,8 |
[V:1]=B/d/f/_a/ g/f/e/d/ c/B/d/F/ _A/F/E/D/ |
[V:2]G,8 |
[V:3]F,8 |
[V:4][D,8=B,8] |
[V:1]E/c/c/c/ F/d/d/d/ G/e/e/e/ B/=e/e/e/ |
[V:2]Cz Fz Ez Gz |
[V:3]G,z Gz Gz [=Ec]z |
[V:4][E,C]z =B,z Cz _B,z |
[V:1]_A/c/f/c/ =E/c/g/c/ F/c/_a/c/ _E/c/=a/c/ |
[V:2]Fz Bz _Az [cF]z |
[V:3][cF]z =Ez Fz _Ez |
[V:4]_A,2 z6 |
[V:1]B/b/b/b/ c/c'/c'/c'/ d/d'/d'/d'/ =e/=e'/e'/e'/ |
[V:2][FB]z ez dz Bz |
[V:3]Dz Fz Fz Gz |
[V:4]z2 A,z B,z G,z |
[V:1]ff' =e'g' f'f =eg |
[V:2]f/c/A/c/ B/c/B/c/ A/c/A/c/ B/c/B/c/ |
[V:3]Az Gz Az Gz |
[V:4]F,2 z2 F,2 z2 |
[V:1]f/c'/a/f/ =e/g/e/B/ A/c'/a/f/ e/b/g/e/ |
[V:2]Az Bz Az Bz |
[V:3]Az Gz Az Gz |
[V:4]F,z F,z F,z F,z |
[V:1]f/=e/g/f/ a/g/b/a/ c'/b/a/b/ c'/a/d'/b/ |
[V:2]A2 z2 A2 z2 |
[V:3]F2 z2 F2 z2 |
[V:4]F,,2 z2 F,2 z2 |
[V:1]e'2 >d'2 c'b ag |
[V:2][c2A2] z2 FG AB |
[V:3]F,F2 G AB cd |
[V:4]F,,2 z6 |
[V:1]fe'2 d' c'b ag |
[V:2]cA2 <F2 G AB |
[V:3]ec AB2 <c2 B |
[V:4]F,,F,2 G, A,B, CD |
[V:1]fe'2 d' c'b ag |
[V:2]cA FG AB cd |
[V:3]A2 z2 FG AB |
[V:4]EC A,2 z4 |
[V:1]_g8 |
[V:2]e8 |
[V:3]A8 |
[V:4]z2 >F,,2 _G,,=G,, _A,,=A,, |
[V:1]f4 d2 B2 |
[V:2]B,z Dz Fz3 |
[V:3]D,z B,z Dz3 |
[V:4]B,,2 z6 |
[V:1]b3 d'/b/ f2 zd |
[V:2]Fz Dz Fz2 F |
[V:3]D,z B,z Dz3 |
[V:4]B,,2 z6 |
[V:1]c2 =B2 c2 A2 |
[V:2]E2 D2 E2 C2 |
[V:3]A,6 E2 |
[V:4]F,,8 |
[V:1]Bz dz f2 zd |
[V:2]D2 z4 zF |
[V:3]D2 z6 |
[V:4]B,,2 z6 |
[V:1]c2 =B2 c2 A2 |
[V:2]E2 D2 E2 C2 |
[V:3]z2 _A,2 =A,2 E2 |
[V:4]F,,6 ^F,2 |
[V:1]B6 _A2 |
[V:2]B,2 A,2 B,2 F2 |
[V:3]D2 ^C2 D2 =B,2 |
[V:4]G,6 D,2 |
[V:1]_A4 G2 B2 |
[V:2]F4 E2 G2 |
[V:3]C2 =B,2 C2 _D2 |
[V:4]E,6 =E,2 |
[V:1]A2 c2 B2 e2 |
[V:2]F2 A2 G2 c2 |
[V:3]C2 E2 D2 F2 |
[V:4]F,2 ^F,2 G,2 A,2 |
[V:1]d2 f=e/f/ b2 e2 |
[V:2]d2 c2 B4- |
[V:3]F6 B,2 |
[V:4]B,2 A,2 G,2 _G,2 |
[V:1]f8- |
[V:2]BA dc BA GF |
[V:3]F2 A,2 C2 A,2 |
[V:4]F,4 z4 |
[V:1]f4 a2 c'2 |
[V:2]F4 C2 A,2 |
[V:3]E,8 |
[V:4]zA, DC B,A, G,F, |
[V:1]f4 b2 d'2 |
[V:2]B,8 |
[V:3]D,8 |
[V:4]zB, GF ED CB, |
[V:1]f8 |
[V:2]zA dc BA GF |
[V:3]F,4 A,2 C2 |
[V:4]E,8 |
[V:1](3:2:2f'4- f'/e'd' c'|
[V:2]zA cB AG FE |
[V:3]B,2 z6 |
[V:4]D,6 E,2 |
[V:1]b6 c'2 |
[V:2]D6 E2 |
[V:3]z6 A,2 |
[V:4]F,^F, A,G, =F,4 |
[V:1]D/F/B/d/ c/e/c/A/ B/b/f/d/ c/e/c/A/ |
[V:2]Dz [CE]z [B,D]z [EA]z |
[V:3]B,z Az Bz cz |
[V:4]B,,z B,,z B,,z B,,z |
[V:1]D/F/B/d/ c/e/c/A/ B/b/f/d/ c/e/c/A/ |
[V:2][DB]z [CE]z [B,D]z [EA]z |
[V:3]Bz Az Bz cz |
[V:4]B,,z B,,z B,,z B,,z |
[V:1]B2 d2 f2 b2 |
[V:2]B/F/D/F/ D/F/D/F/ B/F/D/F/ D/F/D/F/ |
[V:3]B2 F2 D2 B,2 |
[V:4]B,,8 |
[V:1]d'4 =e4 |
[V:2]B/G/=E/G/ E/G/E/G/ B/c/B/c/ B/c/B/c/ |
[V:3]d8 |
[V:4]G,,8 |
[V:1]f2 z6 |
[V:2]B2 z3 d/e/ f/g/a/b/ |
[V:3]dD/E/ F/G/A/B/ F2 z2 |
[V:4][B,,2D,2F,,2] z2 [D,2F,,2B,,2] z2 |
[V:1]zd'/c'/ b/a/g/f/ e/d/g/f/ e/d/c/B/ |
[V:2]f2 z6 |
[V:3]z8 |
[V:4][F,,2B,,2D,2] z6 |
[V:1]Ae cA FE CA, |
[V:2][C8E8] |
[V:3]A,8 |
[V:4]F,,8 |
[V:1]B,B zc zd z/c/=B/c/ |
[V:2]Dz cz dz Az |
[V:3]B,z A,z B,z Fz |
[V:4]B,,z F,,z B,,2 z2 |
[V:1]z/d/^c/d/ z/e/d/e/ f/g/a/b/ a/b/a/b/ |
[V:2]Bz cz dz3 |
[V:3]B,2 z6 |
[V:4]z8 |
[V:1]g4 a4 |
[V:2]e2 B2 e2 c2 |
[V:3]B,/C/D/E/ D/E/D/E/ F,2 F2 |
[V:4]z4 C,/D,/E,/F,/ E,/F,/E,/F,/ |
[V:1]b/f/=e/f/ f/_e/d/e/ d/B/b/g/ f/d/e/c/ |
[V:2]Bz cz dz Az |
[V:3]Fz Fz Fz Ez |
[V:4]D,z A,z B,z F,z |
[V:1]d/B/b/g/ f/d/e/c/ d/B/b/g/ f/d/e/c/ |
[V:2]Bz cz dz Az |
[V:3]Dz Fz Fz Ez |
[V:4]B,,z A,z B,z F,z |
[V:1]db d'b d'2 z2 |
[V:2]Bd fd f2 z2 |
[V:3]D2 z2 >B2 dB |
[V:4]B,,2 z2 >D2 FD |
[V:1]zd' f'd' f'2 z2 |
[V:2]zb d'b d'2 z2 |
[V:3]d2 z6 |
[V:4]F2 z6 |
[V:1]g'8 |
[V:2]_d8 |
[V:3]B8 |
[V:4]=E8 |
[V:1]A8 |
[V:2]E8 |
[V:3]F,8 |
[V:4]C8 |
[V:1]B2 z4 e3/A/ |
[V:2]Dd/c/ B/A/G/F/ E/D/C/B, <A,E/ |
[V:3]B,B/A/ G/F/E/D/ C/B,/A,/G,/ F,C |
[V:4]B,2 z4 F,,2 |
[V:1]BB,/A,/ B,/C/D/E/ F/G/A/B/ c/d/e/f/ |
[V:2]D2 z6 |
[V:3]D2 z6 |
[V:4]B,,2 z6 |
[V:1]g8 |
[V:2]C8 |
[V:3]B,8 |
[V:4]E,,4 =E,,3 D,,/E,,/ |
[V:1]f4 d2 B2 |
[V:2]Dz DC/D/ F2 z2 |
[V:3]B,z B,A,/B,/ D2 z2 |
[V:4]F,,4 z4 |
[V:1]b3 d'/b/ f2 zd |
[V:2]Fz DC/D/ F2 zF |
[V:3]Dz B,A,/B,/ D2 z2 |
[V:4]F,,4 z4 |
[V:1]c2 =B2 c2 A2 |
[V:2]E2 D2 E2 C2 |
[V:3]F,4 z3 E |
[V:4]z7 F, |
[V:1]B2 (3:2:2z4 z/d|
[V:2]B,2 z4 zF |
[V:3]F2 =E2 F2 D2 |
[V:4]D2 ^C2 D2 B,2 |
[V:1](3cdc (3=BcB (3cde (3A_Bc |
[V:2]E2 D2 E2 C2 |
[V:3]z2 _A,2 =A,2 E,2 |
[V:4]F,8 |
[V:1]B2 z2 c2 c3/d/ |
[V:2]D2 z2 A4 |
[V:3]D,2 z2 E4 |
[V:4]B,,2 z2 F,4 |
[V:1]B2 z2 g4 |
[V:2]B2 z2 c2 c3/A/ |
[V:3]D2 z2 A4 |
[V:4]B,2 z2 E2 E3/F/ |
[V:1]f2 z2 [a2c2F2] z2 |
[V:2]d2 z2 [e2F2] z2 |
[V:3]B2 z2 [F2c2] z2 |
[V:4]D2 z2 F,2 z2 |
[V:1][b2B2D2] z6 |]
[V:2][d2F2B,2] z6 |]
[V:3][B2B,2D2] z6 |]
[V:4][B,,2B,2D,2] z6 |]

